X:56
T:no name
R:slide
H:See also #19, #57
Z:id:hn-slide-56
M:6/8
K:Ador
ABA AGA|cdc c2d|efe ede|g3 e2a|
gec cge|dBG GAB|c2A BGE|1 c3 A2E:|2 c3 A2g||
|:aba age|gag geg|aba age|g3 e2a|
gec cge|dBG GAB|c2A BGE|1 c3 A2g:|2 c3 A2E||
<end>
<start>
